icon-themes/sifr_svg/cmd/sc_insertdatefieldvar.svg

<svg viewBox="0 0 16 16" xmlns="http://www.w3.org/2000/svg"><path d="m3 2c-.554 0-1 .446-1 1v10c0 .554.446 1 1 1h10c.554 0 1-.446 1-1v-10c0-.554-.446-1-1-1zm3 3h4v1h-3v1h3v4h-4v-1h3v-2h-3z" fill="#555753"/></svg>

<svg xmlns="http://www.w3.org/2000/svg" viewBox="0 0 16 16">
  <path
     style="fill:#555753"
     d="M 3 2 C 2.446 2 2 2.446 2 3 L 2 13 C 2 13.554 2.446 14 3 14 L 13 14 C 13.554 14 14 13.554 14 13 L 14 3 C 14 2.446 13.554 2 13 2 L 3 2 z M 6 5 L 10 5 L 10 6 L 7 6 L 7 7 L 10 7 L 10 11 L 6 11 L 6 10 L 9 10 L 9 8 L 6 8 L 6 5 z "
     />
</svg>
